X:5579
T:Road to New Dublin
O:england
M:6/8
L:1/8
S:Jim Nelson, (Manawa, WI  USA)
R:Jig
K:D
|:D2 F AGF|EDE FED|D2 F AGF|AGF EDC|
D2 F AGF|EDE FED|A2 A AGF|EDE D3:|
|:afa geg|fdf ecA|def agf|gfd e3|
afa geg|fdf ecA|A2 A AGF|EDE D3:|


